X:85
T: Graf und Nonne (Die Nonne)
N: Q0155V
O: Mitteleuropa, Deutschland (DDR) , Brandenburg, Uckermark
R: Ballade, Standesunterschied, vergebliche Werbung, Liebe, Klage
M: 2/4
L: 1/16
K: G
G2 | d3gdcBA | G4A2
A2 | B2B2c2e2 | d4z2
d2 | g2g2fed2 | e4d4 | c4B2
g2 | e2dcB2A2 | G4z2

@@@ Tune index: 1795
